X:1
T:Unneg gwezh oan dimezet
C:Laridé, fichier abc : Bernard Loffet
L:1/8
Q:364
K:C
M:12/8
 z8z3d |: [e2C,,2]e [e2C,2]c [d2G,,2]d [d2G,2]d | [e2C,,2]e [e2C,2]c [d2G,,2]d [d2G,2]d :| [G2G,,2]d [d2G,2]d [d2G,,2]d [d3G,3] | \
 [d2G,,2]d [d2G,2]d [e2C,,2]e [c3C,3] | [e2C,,2]e [e2C,2]e [d2G,,2]c [d3G,3] | [e2C,,2]e [e2C,2]e [d2G,,2]d [c3C,3] | \
 [e2C,,2]e [e2C,2]e [d2G,,2]c [d2G,2]d | [e2C,,2]e [e2C,2]e [d2G,,2]d [c3C,3] | \
W:Created with TablEdit http://www.tabledit.com/ by Bernard Loffet
